sources/design/Regular/oslash.svg

<?xml version="1.0" encoding="UTF-8" standalone="no"?>
<svg
   xmlns:dc="http://purl.org/dc/elements/1.1/"
   xmlns:cc="http://creativecommons.org/ns#"
   xmlns:rdf="http://www.w3.org/1999/02/22-rdf-syntax-ns#"
   xmlns:svg="http://www.w3.org/2000/svg"
   xmlns="http://www.w3.org/2000/svg"
   xmlns:sodipodi="http://sodipodi.sourceforge.net/DTD/sodipodi-0.dtd"
   xmlns:inkscape="http://www.inkscape.org/namespaces/inkscape"
   xml:space="preserve"
   width="1000"
   height="1000"
   version="1.1"
   style="clip-rule:evenodd;fill-rule:evenodd;image-rendering:optimizeQuality;shape-rendering:geometricPrecision;text-rendering:geometricPrecision"
   viewBox="0 0 1000 1000"
   id="svg10"
   sodipodi:docname="oslash.svg"
   inkscape:version="1.0.2 (e86c870879, 2021-01-15)"><metadata
   id="metadata14"><rdf:RDF><cc:Work
       rdf:about=""><dc:format>image/svg+xml</dc:format><dc:type
         rdf:resource="http://purl.org/dc/dcmitype/StillImage" /><dc:title /></cc:Work></rdf:RDF></metadata><sodipodi:namedview
   pagecolor="#ffffff"
   bordercolor="#666666"
   borderopacity="1"
   objecttolerance="10"
   gridtolerance="10"
   guidetolerance="10"
   inkscape:pageopacity="0"
   inkscape:pageshadow="2"
   inkscape:window-width="1920"
   inkscape:window-height="1007"
   id="namedview12"
   showgrid="false"
   inkscape:zoom="0.84890884"
   inkscape:cx="176.65442"
   inkscape:cy="568.64435"
   inkscape:window-x="1920"
   inkscape:window-y="0"
   inkscape:window-maximized="1"
   inkscape:current-layer="svg10"
   showguides="true"
   inkscape:guide-bbox="true"
   inkscape:document-rotation="0"><sodipodi:guide
   position="0,1000"
   orientation="0,1"
   id="guide16"
   inkscape:label=""
   inkscape:locked="true"
   inkscape:color="rgb(0,0,255)" /><sodipodi:guide
   position="1763.3122,2036.1693"
   orientation="1000,0"
   id="guide18" /><sodipodi:guide
   position="0,200"
   orientation="0,1"
   id="guide20"
   inkscape:label="base"
   inkscape:locked="true"
   inkscape:color="rgb(0,0,255)" /><inkscape:grid
   type="xygrid"
   id="grid24"
   originx="-473.37552"
   originy="-489.69235" /><sodipodi:guide
   position="0,0"
   orientation="0,1"
   id="guide34"
   inkscape:label="bottom"
   inkscape:locked="true"
   inkscape:color="rgb(0,0,255)" /><sodipodi:guide
   position="225.05109,1693.3186"
   orientation="0,1"
   id="guide44"
   inkscape:label=""
   inkscape:locked="false"
   inkscape:color="rgb(0,0,255)" /><sodipodi:guide
   position="0,900"
   orientation="0,1"
   id="guide46"
   inkscape:label=""
   inkscape:locked="true"
   inkscape:color="rgb(0,0,255)" /><sodipodi:guide
   position="523.12559,545.57056"
   orientation="1,0"
   id="guide841"
   inkscape:label="width" />    <sodipodi:guide
   position="-210.85892,799.74293"
   orientation="0,-1"
   id="guide856" /></sodipodi:namedview>
 <defs
   id="defs4"><inkscape:path-effect
   effect="fillet_chamfer"
   id="path-effect860"
   is_visible="true"
   lpeversion="1"
   satellites_param="F,0,0,1,0,0,0,1 @ F,0,0,1,0,0,0,1 @ F,0,0,1,0,0,0,1 @ F,0,0,1,0,0,0,1 @ F,0,0,1,0,0,0,1 @ F,0,0,1,0,25.473039,0,1 @ F,0,0,1,0,18.072288,0,1 @ F,0,0,1,0,0,0,1 @ F,0,0,1,0,0,0,1 @ F,0,0,1,0,0,0,1 @ F,0,0,1,0,0,0,1 @ F,0,0,1,0,0,0,1 @ F,0,0,1,0,0,0,1 @ F,0,0,1,0,37.503075,0,1 @ F,0,0,1,0,21.092948,0,1 @ F,0,0,1,0,0,0,1 @ F,0,0,1,0,0,0,1 | F,0,0,1,0,0,0,1 @ F,0,0,1,0,0,0,1 @ F,0,0,1,0,0,0,1 @ F,0,0,1,0,0,0,1 @ F,0,0,1,0,0,0,1 @ F,0,0,1,0,0,0,1 | F,0,0,1,0,0,0,1 @ F,0,0,1,0,0,0,1 @ F,0,0,1,0,0,0,1 @ F,0,0,1,0,0,0,1 @ F,0,0,1,0,0,0,1 @ F,0,0,1,0,0,0,1"
   unit="px"
   method="auto"
   mode="F"
   radius="0"
   chamfer_steps="1"
   flexible="false"
   use_knot_distance="true"
   apply_no_radius="true"
   apply_with_radius="true"
   only_selected="true"
   hide_knots="false" /><inkscape:path-effect
   effect="spiro"
   id="path-effect858"
   is_visible="true"
   lpeversion="1" /><inkscape:path-effect
   effect="spiro"
   id="path-effect859"
   is_visible="true"
   lpeversion="1" /><inkscape:path-effect
   effect="spiro"
   id="path-effect137"
   is_visible="true"
   lpeversion="1" /><inkscape:path-effect
   effect="spiro"
   id="path-effect133"
   is_visible="true"
   lpeversion="1" /><inkscape:path-effect
   effect="spiro"
   id="path-effect114"
   is_visible="true"
   lpeversion="1" /><inkscape:path-effect
   effect="spiro"
   id="path-effect853"
   is_visible="true"
   lpeversion="1" /><inkscape:path-effect
   effect="spiro"
   id="path-effect928"
   is_visible="true"
   lpeversion="1" /><inkscape:path-effect
   effect="spiro"
   id="path-effect921"
   is_visible="true"
   lpeversion="1" /><inkscape:path-effect
   effect="spiro"
   id="path-effect917"
   is_visible="true"
   lpeversion="1" /><inkscape:path-effect
   effect="spiro"
   id="path-effect849"
   is_visible="true"
   lpeversion="1" /><inkscape:path-effect
   effect="spiro"
   id="path-effect851"
   is_visible="true"
   lpeversion="1" />
  <style
   type="text/css"
   id="style2">
   <![CDATA[
    .fil0 {fill:#EF7F1A;fill-rule:nonzero}
   ]]>
  </style>
 <inkscape:path-effect
   effect="spiro"
   id="path-effect1214"
   is_visible="true"
   lpeversion="1" /><inkscape:path-effect
   effect="spiro"
   id="path-effect1195"
   is_visible="true"
   lpeversion="1" /><inkscape:path-effect
   effect="spiro"
   id="path-effect992"
   is_visible="true"
   lpeversion="1" /><inkscape:path-effect
   effect="spiro"
   id="path-effect1060"
   is_visible="true"
   lpeversion="1" /><inkscape:path-effect
   effect="spiro"
   id="path-effect1047"
   is_visible="true"
   lpeversion="1" /><inkscape:path-effect
   effect="spiro"
   id="path-effect1085"
   is_visible="true"
   lpeversion="1" /><inkscape:path-effect
   effect="spiro"
   id="path-effect1286"
   is_visible="true"
   lpeversion="1" /><inkscape:path-effect
   effect="spiro"
   id="path-effect117"
   is_visible="true"
   lpeversion="1" /></defs>
 
<path
   id="path857"
   style="fill:#2d2d2d;fill-rule:nonzero;stroke:none;stroke-width:1px;stroke-linecap:butt;stroke-linejoin:miter;stroke-opacity:1"
   d="m 264.08789,200.25781 c -36.60989,0.11909 -73.04447,9.58865 -105.51758,26.49414 -32.4689,16.9033 -60.960098,41.13712 -83.771482,69.76563 C 29.135973,353.82491 6.9704059,428.19207 8.1835938,501.45703 9.2345311,564.9236 27.342963,628.02792 60.105469,682.39453 l -43.216427,42.95474 a 19.215641,19.215641 82.203154 0 0 4.162191,30.39717 l 63.306952,35.42793 a 17.62512,17.62512 163.51462 0 0 24.198545,-7.16122 l 17.20694,-32.6401 c 35.7881,27.48973 80.05628,43.77702 125.12695,46.03711 37.44528,1.87771 75.2559,-5.82113 109.26368,-21.60547 34.01247,-15.78652 64.14699,-39.53723 88.4375,-68.10352 48.62461,-57.18384 73.03166,-133.15324 72.40429,-208.21289 -0.57872,-69.23925 -21.91692,-138.17322 -60.55664,-195.63086 L 496.0357,269.7773 a 22.973102,22.973102 77.736749 0 0 -8.32191,-38.28567 l -69.63917,-24.28768 a 24.058646,24.058646 157.98493 0 0 -29.40799,11.8906 l -6.84241,13.57928 c -3.99665,-2.34108 -8.06005,-4.5682 -12.1836,-6.67774 -32.5477,-16.65082 -68.99335,-25.8572 -105.55273,-25.73828 z m 0.12891,82.03516 c 27.74704,-0.17416 55.51001,6.72351 79.94922,19.86328 -35.85601,63.02469 -75.2996,124.00811 -118.07618,182.55664 C 189.83139,534.34002 151.17916,582.21811 110.3125,628.125 87.267411,589.86041 74.559022,545.43657 73.880859,500.77344 73.065316,447.0626 90.1514,392.63799 124.41992,351.27148 158.64593,309.95629 210.56746,282.62972 264.2168,282.29297 Z m 145.22851,74.5332 c 29.2379,41.39598 45.46846,91.84081 45.85547,142.51953 0.42058,55.07467 -18.33765,110.7326 -54.86523,151.95313 -36.46465,41.14951 -91.11774,66.7998 -146.03516,64.14844 -32.22949,-1.55601 -63.93902,-12.6625 -90.0957,-31.55665 33.89322,-56.71846 70.65969,-111.7198 110.11133,-164.72265 42.04687,-56.48952 87.14398,-110.70846 135.02929,-162.3418 z"
   inkscape:path-effect="#path-effect858;#path-effect860"
   inkscape:original-d="m 264.08789,200.25781 c -36.60866,0.12194 -73.18901,10.06357 -105.51758,26.49414 C 126.17488,243.2165 95.177004,266.42979 74.798828,296.51758 34.517559,355.9917 9.434274,429.63651 8.1835938,501.45703 7.0910917,564.19415 25.234927,629.38845 60.105469,682.39453 40.139431,703.15614 19.705814,723.4681 -1.1777344,743.30664 32.591147,762.20443 72.587437,662.00743 100.12891,800 c 8.31536,-16.32872 16.86416,-32.53821 25.63476,-48.62695 36.6244,26.61573 80.82196,42.54458 125.12695,46.03711 37.01161,2.9176 75.45113,-6.27304 109.26368,-21.60547 33.88597,-15.36572 66.67935,-37.92162 88.4375,-68.10352 42.97059,-59.60681 71.13789,-134.7429 72.40429,-208.21289 1.17647,-68.25287 -19.36368,-139.87894 -60.55664,-195.63086 20.45092,-20.46276 41.34772,-40.47935 62.68555,-60.01562 L 398.1582,200.25781 c -5.3401,10.85807 -10.7886,21.66137 -16.33398,32.41602 -3.99641,-2.33905 -8.05841,-4.56863 -12.1836,-6.67774 -32.55187,-16.643 -68.9932,-25.86005 -105.55273,-25.73828 z m 0.12891,82.03516 c 27.80909,-0.0871 55.21612,7.1448 79.94922,19.86328 C 308.30343,365.17736 268.58945,426.01124 226.08984,484.71289 190.06069,534.47736 151.17467,582.21398 110.3125,628.125 86.150902,590.6167 72.835421,544.91444 73.880859,500.77344 c 1.245537,-52.58968 15.88384,-109.92619 50.539061,-149.50196 34.23253,-39.09306 86.12117,-68.8104 139.79688,-68.97851 z m 145.22851,74.5332 c 30.80351,40.30572 46.73403,92.62231 45.85547,142.51953 -0.94804,53.84325 -18.0909,112.61304 -54.86523,151.95313 -36.30735,38.84053 -92.90679,62.10228 -146.03516,64.14844 -31.7972,1.22462 -63.41801,-13.26886 -90.0957,-31.55665 33.89949,-56.71497 70.58839,-111.80816 110.11133,-164.72265 42.12042,-56.39208 87.15062,-110.70242 135.02929,-162.3418 z"
   sodipodi:nodetypes="saaaccccaaaaccccssscacaascaaacac" /></svg>

<?xml version="1.0" encoding="UTF-8" standalone="no"?>
<svg
   xmlns:dc="http://purl.org/dc/elements/1.1/"
   xmlns:cc="http://creativecommons.org/ns#"
   xmlns:rdf="http://www.w3.org/1999/02/22-rdf-syntax-ns#"
   xmlns:svg="http://www.w3.org/2000/svg"
   xmlns="http://www.w3.org/2000/svg"
   xmlns:sodipodi="http://sodipodi.sourceforge.net/DTD/sodipodi-0.dtd"
   xmlns:inkscape="http://www.inkscape.org/namespaces/inkscape"
   xml:space="preserve"
   width="1000"
   height="1000"
   version="1.1"
   style="clip-rule:evenodd;fill-rule:evenodd;image-rendering:optimizeQuality;shape-rendering:geometricPrecision;text-rendering:geometricPrecision"
   viewBox="0 0 1000 1000"
   id="svg10"
   sodipodi:docname="oslash.svg"
   inkscape:version="1.0.2 (e86c870879, 2021-01-15)"><metadata
   id="metadata14"><rdf:RDF><cc:Work
       rdf:about=""><dc:format>image/svg+xml</dc:format><dc:type
         rdf:resource="http://purl.org/dc/dcmitype/StillImage" /><dc:title /></cc:Work></rdf:RDF></metadata><sodipodi:namedview
   pagecolor="#ffffff"
   bordercolor="#666666"
   borderopacity="1"
   objecttolerance="10"
   gridtolerance="10"
   guidetolerance="10"
   inkscape:pageopacity="0"
   inkscape:pageshadow="2"
   inkscape:window-width="1920"
   inkscape:window-height="1007"
   id="namedview12"
   showgrid="false"
   inkscape:zoom="0.84890884"
   inkscape:cx="176.68447"
   inkscape:cy="568.6393"
   inkscape:window-x="1920"
   inkscape:window-y="0"
   inkscape:window-maximized="1"
   inkscape:current-layer="svg10"
   showguides="true"
   inkscape:guide-bbox="true"
   inkscape:document-rotation="0"><sodipodi:guide
   position="0,1000"
   orientation="0,1"
   id="guide16"
   inkscape:label=""
   inkscape:locked="true"
   inkscape:color="rgb(0,0,255)" /><sodipodi:guide
   position="1763.3122,2036.1693"
   orientation="1000,0"
   id="guide18" /><sodipodi:guide
   position="0,200"
   orientation="0,1"
   id="guide20"
   inkscape:label="base"
   inkscape:locked="true"
   inkscape:color="rgb(0,0,255)" /><inkscape:grid
   type="xygrid"
   id="grid24"
   originx="-473.37552"
   originy="-489.69235" /><sodipodi:guide
   position="0,0"
   orientation="0,1"
   id="guide34"
   inkscape:label="bottom"
   inkscape:locked="true"
   inkscape:color="rgb(0,0,255)" /><sodipodi:guide
   position="225.05109,1693.3186"
   orientation="0,1"
   id="guide44"
   inkscape:label=""
   inkscape:locked="false"
   inkscape:color="rgb(0,0,255)" /><sodipodi:guide
   position="0,900"
   orientation="0,1"
   id="guide46"
   inkscape:label=""
   inkscape:locked="true"
   inkscape:color="rgb(0,0,255)" /><sodipodi:guide
   position="523.12559,545.57056"
   orientation="1,0"
   id="guide841"
   inkscape:label="width" />    <sodipodi:guide
   position="-210.85892,799.74293"
   orientation="0,-1"
   id="guide856" /></sodipodi:namedview>
 <defs
   id="defs4"><inkscape:path-effect
   effect="spiro"
   id="path-effect859"
   is_visible="true"
   lpeversion="1" /><inkscape:path-effect
   effect="spiro"
   id="path-effect137"
   is_visible="true"
   lpeversion="1" /><inkscape:path-effect
   effect="spiro"
   id="path-effect133"
   is_visible="true"
   lpeversion="1" /><inkscape:path-effect
   effect="spiro"
   id="path-effect114"
   is_visible="true"
   lpeversion="1" /><inkscape:path-effect
   effect="spiro"
   id="path-effect853"
   is_visible="true"
   lpeversion="1" /><inkscape:path-effect
   effect="spiro"
   id="path-effect928"
   is_visible="true"
   lpeversion="1" /><inkscape:path-effect
   effect="spiro"
   id="path-effect921"
   is_visible="true"
   lpeversion="1" /><inkscape:path-effect
   effect="spiro"
   id="path-effect917"
   is_visible="true"
   lpeversion="1" /><inkscape:path-effect
   effect="spiro"
   id="path-effect849"
   is_visible="true"
   lpeversion="1" /><inkscape:path-effect
   effect="spiro"
   id="path-effect851"
   is_visible="true"
   lpeversion="1" />
  <style
   type="text/css"
   id="style2">
   <![CDATA[
    .fil0 {fill:#EF7F1A;fill-rule:nonzero}
   ]]>
  </style>
 <inkscape:path-effect
   effect="spiro"
   id="path-effect1214"
   is_visible="true"
   lpeversion="1" /><inkscape:path-effect
   effect="spiro"
   id="path-effect1195"
   is_visible="true"
   lpeversion="1" /><inkscape:path-effect
   effect="spiro"
   id="path-effect992"
   is_visible="true"
   lpeversion="1" /><inkscape:path-effect
   effect="spiro"
   id="path-effect1060"
   is_visible="true"
   lpeversion="1" /><inkscape:path-effect
   effect="spiro"
   id="path-effect1047"
   is_visible="true"
   lpeversion="1" /><inkscape:path-effect
   effect="spiro"
   id="path-effect1085"
   is_visible="true"
   lpeversion="1" /><inkscape:path-effect
   effect="spiro"
   id="path-effect1286"
   is_visible="true"
   lpeversion="1" /><inkscape:path-effect
   effect="spiro"
   id="path-effect117"
   is_visible="true"
   lpeversion="1" /></defs>
 
<path
   id="path857"
   style="fill:#2d2d2d;fill-rule:nonzero;stroke:none;stroke-width:1px;stroke-linecap:butt;stroke-linejoin:miter;stroke-opacity:1"
   d="M 264.08789 200.25781 C 227.47923 200.37975 191.0519 209.86539 158.57031 226.75195 C 126.08873 243.63851 97.550021 267.83671 74.798828 296.51758 C 29.296442 353.87932 7.8257394 428.24017 8.1835938 501.45703 C 8.4945506 565.07867 25.234927 629.38845 60.105469 682.39453 C 40.139431 703.15614 19.705814 723.4681 -1.1777344 743.30664 L 100.12891 800 C 108.44427 783.67128 116.99307 767.46179 125.76367 751.37305 C 162.38807 777.98878 205.78698 794.97555 250.89062 797.41016 C 288.33551 799.43136 326.14746 791.60784 360.1543 775.80469 C 394.16113 760.00153 424.35648 736.3168 448.5918 707.70117 C 497.06243 650.46992 520.68421 574.48642 520.99609 499.48828 C 521.28489 430.04119 501.63241 359.60934 460.43945 303.85742 C 480.89037 283.39466 501.78717 263.37807 523.125 243.8418 L 398.1582 200.25781 C 392.8181 211.11588 387.3696 221.91918 381.82422 232.67383 C 377.82781 230.33478 373.76581 228.1052 369.64062 225.99609 C 337.08875 209.35309 300.64742 200.13604 264.08789 200.25781 z M 264.2168 282.29297 C 292.02589 282.20587 319.43292 289.43777 344.16602 302.15625 C 308.30343 365.17736 268.86563 426.16352 226.08984 484.71289 C 189.8321 534.34069 151.17467 582.21398 110.3125 628.125 C 86.150902 590.6167 74.12121 545.51905 73.880859 500.77344 C 73.592544 447.09824 90.315824 392.72049 124.41992 351.27148 C 158.52402 309.82248 210.54109 282.46108 264.2168 282.29297 z M 409.44531 356.82617 C 440.24882 397.13189 455.49278 448.53113 455.30078 499.3457 C 455.09288 554.36904 436.74549 609.95637 400.43555 651.29883 C 364.12561 692.64129 309.34406 718.41437 254.40039 715.44727 C 222.15748 713.70606 190.98238 702.17841 164.30469 683.89062 C 198.20418 627.17565 234.96454 572.17127 274.41602 519.16797 C 316.46253 462.67822 361.56664 408.46555 409.44531 356.82617 z " /></svg>
